Newaita-dark/.places-mint/32/user-trash-full.svg

<?xml version="1.0" encoding="UTF-8"?>
<svg xmlns="http://www.w3.org/2000/svg" xmlns:xlink="http://www.w3.org/1999/xlink" width="32px" height="32px" viewBox="0 0 32 32" version="1.1">
<defs>
<linearGradient id="linear0" gradientUnits="userSpaceOnUse" x1="254" y1="233.5" x2="254" y2="254.666672" gradientTransform="matrix(0.062506,0,0,0.062506,-0.00000381506,13.438785)">
<stop offset="0" style="stop-color:rgb(0%,0%,0%);stop-opacity:0.27451;"/>
<stop offset="1" style="stop-color:rgb(0%,0%,0%);stop-opacity:0;"/>
</linearGradient>
<radialGradient id="radial0" gradientUnits="userSpaceOnUse" cx="450.908936" cy="189.579361" fx="450.908936" fy="189.579361" r="21.166656" gradientTransform="matrix(0.00000017417,-0.0781325,-0.140638,-0.000000101539,49.484565,63.595333)">
<stop offset="0" style="stop-color:rgb(0%,0%,0%);stop-opacity:0.313726;"/>
<stop offset="0.222222" style="stop-color:rgb(0%,0%,0%);stop-opacity:0.27451;"/>
<stop offset="1" style="stop-color:rgb(0%,0%,0%);stop-opacity:0;"/>
</radialGradient>
<radialGradient id="radial1" gradientUnits="userSpaceOnUse" cx="450.908936" cy="189.579361" fx="450.908936" fy="189.579361" r="21.166656" gradientTransform="matrix(-0.00000017417,0.0781325,0.140638,0.000000101539,-17.731532,-7.527479)">
<stop offset="0" style="stop-color:rgb(0%,0%,0%);stop-opacity:0.313726;"/>
<stop offset="0.222222" style="stop-color:rgb(0%,0%,0%);stop-opacity:0.27451;"/>
<stop offset="1" style="stop-color:rgb(0%,0%,0%);stop-opacity:0;"/>
</radialGradient>
<radialGradient id="radial2" gradientUnits="userSpaceOnUse" cx="450.908936" cy="189.579361" fx="450.908936" fy="189.579361" r="21.166656" gradientTransform="matrix(-0.00000017417,-0.0781325,0.140638,-0.000000101539,-17.731532,63.595333)">
<stop offset="0" style="stop-color:rgb(0%,0%,0%);stop-opacity:0.313726;"/>
<stop offset="0.222222" style="stop-color:rgb(0%,0%,0%);stop-opacity:0.27451;"/>
<stop offset="1" style="stop-color:rgb(0%,0%,0%);stop-opacity:0;"/>
</radialGradient>
<radialGradient id="radial3" gradientUnits="userSpaceOnUse" cx="450.908936" cy="189.579361" fx="450.908936" fy="189.579361" r="21.166656" gradientTransform="matrix(0.00000017417,0.0781325,-0.140638,0.000000101539,49.484563,-7.527479)">
<stop offset="0" style="stop-color:rgb(0%,0%,0%);stop-opacity:0.313726;"/>
<stop offset="0.222222" style="stop-color:rgb(0%,0%,0%);stop-opacity:0.27451;"/>
<stop offset="1" style="stop-color:rgb(0%,0%,0%);stop-opacity:0;"/>
</radialGradient>
<linearGradient id="linear1" gradientUnits="userSpaceOnUse" x1="275.166656" y1="233.5" x2="275.166656" y2="-147.5" gradientTransform="matrix(0.062506,0,0,0.062506,0,13.438783)">
<stop offset="0" style="stop-color:rgb(34.509805%,34.509805%,34.509805%);stop-opacity:0;"/>
<stop offset="1" style="stop-color:rgb(98.039216%,98.039216%,98.039216%);stop-opacity:0.196078;"/>
</linearGradient>
</defs>
<g id="surface1">
<path style=" stroke:none;fill-rule:nonzero;fill:url(#linear0);" d="M 8.601562 28.035156 L 23.152344 28.035156 L 23.152344 29.355469 L 8.601562 29.355469 Z M 8.601562 28.035156 "/>
<path style=" stroke:none;fill-rule:nonzero;fill:url(#radial0);" d="M 23.152344 28.035156 L 25.800781 28.035156 L 25.800781 26.710938 L 23.152344 26.710938 Z M 23.152344 28.035156 "/>
<path style=" stroke:none;fill-rule:nonzero;fill:url(#radial1);" d="M 8.601562 28.035156 L 5.953125 28.035156 L 5.953125 29.355469 L 8.601562 29.355469 Z M 8.601562 28.035156 "/>
<path style=" stroke:none;fill-rule:nonzero;fill:url(#radial2);" d="M 8.601562 28.035156 L 5.953125 28.035156 L 5.953125 26.710938 L 8.601562 26.710938 Z M 8.601562 28.035156 "/>
<path style=" stroke:none;fill-rule:nonzero;fill:url(#radial3);" d="M 23.152344 28.035156 L 25.800781 28.035156 L 25.800781 29.355469 L 23.152344 29.355469 Z M 23.152344 28.035156 "/>
<path style=" stroke:none;fill-rule:nonzero;fill:rgb(68.235296%,83.529413%,50.588238%);fill-opacity:1;" d="M 7.277344 6.867188 L 24.476562 6.867188 C 25.207031 6.867188 25.800781 7.457031 25.800781 8.1875 L 25.800781 26.710938 C 25.800781 27.441406 25.207031 28.035156 24.476562 28.035156 L 7.277344 28.035156 C 6.546875 28.035156 5.953125 27.441406 5.953125 26.710938 L 5.953125 8.1875 C 5.953125 7.457031 6.546875 6.867188 7.277344 6.867188 Z M 7.277344 6.867188 "/>
<path style=" stroke:none;fill-rule:nonzero;fill:rgb(0%,0%,0%);fill-opacity:0.196078;" d="M 5.953125 25.222656 L 25.800781 25.222656 L 25.800781 25.386719 L 5.953125 25.386719 Z M 5.953125 25.222656 "/>
<path style=" stroke:none;fill-rule:nonzero;fill:rgb(90.196079%,90.196079%,90.196079%);fill-opacity:0.588235;" d="M 5.953125 25.386719 L 25.800781 25.386719 L 25.800781 25.554688 L 5.953125 25.554688 Z M 5.953125 25.386719 "/>
<path style=" stroke:none;fill-rule:nonzero;fill:rgb(12.941177%,12.941177%,12.941177%);fill-opacity:0.992157;" d="M 5.953125 25.304688 L 25.800781 25.304688 L 25.800781 25.46875 L 5.953125 25.46875 Z M 5.953125 25.304688 "/>
<path style=" stroke:none;fill-rule:nonzero;fill:url(#linear1);" d="M 7.277344 6.867188 L 24.476562 6.867188 C 25.207031 6.867188 25.800781 7.457031 25.800781 8.1875 L 25.800781 26.710938 C 25.800781 27.441406 25.207031 28.035156 24.476562 28.035156 L 7.277344 28.035156 C 6.546875 28.035156 5.953125 27.441406 5.953125 26.710938 L 5.953125 8.1875 C 5.953125 7.457031 6.546875 6.867188 7.277344 6.867188 Z M 7.277344 6.867188 "/>
<path style=" stroke:none;fill-rule:nonzero;fill:rgb(93.725491%,32.549021%,31.37255%);fill-opacity:1;" d="M 15.875 9.511719 C 16.605469 9.511719 17.199219 10.105469 17.199219 10.835938 L 17.199219 22.742188 C 17.199219 23.472656 16.605469 24.066406 15.875 24.066406 C 15.144531 24.066406 14.554688 23.472656 14.554688 22.742188 L 14.554688 10.835938 C 14.554688 10.105469 15.144531 9.511719 15.875 9.511719 Z M 15.875 9.511719 "/>
<path style=" stroke:none;fill-rule:nonzero;fill:rgb(27.058825%,35.294119%,39.215687%);fill-opacity:1;" d="M 15.875 2.894531 C 16.605469 2.894531 17.199219 3.488281 17.199219 4.21875 C 17.199219 4.949219 16.605469 5.542969 15.875 5.542969 C 15.144531 5.542969 14.554688 4.949219 14.554688 4.21875 C 14.554688 3.488281 15.144531 2.894531 15.875 2.894531 Z M 15.875 2.894531 "/>
<path style=" stroke:none;fill-rule:nonzero;fill:rgb(14.901961%,65.098041%,60.392159%);fill-opacity:1;" d="M 15.875 2.894531 C 16.605469 2.894531 17.199219 3.488281 17.199219 4.21875 C 17.199219 4.949219 16.605469 5.542969 15.875 5.542969 C 15.144531 5.542969 14.554688 4.949219 14.554688 4.21875 C 14.554688 3.488281 15.144531 2.894531 15.875 2.894531 Z M 15.875 2.894531 "/>
<path style="fill-rule:nonzero;fill:rgb(54.509807%,76.47059%,29.019609%);fill-opacity:1;stroke-width:3;stroke-linecap:round;stroke-linejoin:miter;stroke:rgb(12.941177%,12.941177%,12.941177%);stroke-opacity:1;stroke-miterlimit:4;" d="M 253.975747 -168.691922 C 265.662131 -168.691922 275.161223 -159.192829 275.161223 -147.506445 C 275.161223 -135.820061 265.662131 -126.320968 253.975747 -126.320968 C 242.289363 -126.320968 232.852764 -135.820061 232.852764 -147.506445 C 232.852764 -159.192829 242.289363 -168.691922 253.975747 -168.691922 Z M 253.975747 -168.691922 " transform="matrix(0.062506,0,0,0.062506,0,13.438783)"/>
<path style="fill-rule:nonzero;fill:rgb(9.803922%,72.941178%,61.176473%);fill-opacity:1;stroke-width:3;stroke-linecap:round;stroke-linejoin:miter;stroke:rgb(12.941177%,12.941177%,12.941177%);stroke-opacity:1;stroke-miterlimit:4;" d="M 105.802396 -147.506445 L 402.149097 -147.506445 C 413.835481 -147.506445 423.334574 -138.007352 423.334574 -126.320968 C 423.334574 -114.634584 413.835481 -105.135492 402.149097 -105.135492 L 105.802396 -105.135492 C 94.116012 -105.135492 84.679414 -114.634584 84.679414 -126.320968 C 84.679414 -138.007352 94.116012 -147.506445 105.802396 -147.506445 Z M 105.802396 -147.506445 " transform="matrix(0.062506,0,0,0.062506,0,13.438783)"/>
<path style="fill-rule:nonzero;fill:rgb(68.235296%,83.529413%,50.588238%);fill-opacity:1;stroke-width:3;stroke-linecap:round;stroke-linejoin:miter;stroke:rgb(12.941177%,12.941177%,12.941177%);stroke-opacity:1;stroke-miterlimit:4;" d="M 105.802396 -147.506445 L 402.149097 -147.506445 C 413.835481 -147.506445 423.334574 -138.007352 423.334574 -126.320968 C 423.334574 -114.634584 413.835481 -105.135492 402.149097 -105.135492 L 105.802396 -105.135492 C 94.116012 -105.135492 84.679414 -114.634584 84.679414 -126.320968 C 84.679414 -138.007352 94.116012 -147.506445 105.802396 -147.506445 Z M 105.802396 -147.506445 " transform="matrix(0.062506,0,0,0.062506,0,13.438783)"/>
<path style=" stroke:none;fill-rule:nonzero;fill:rgb(93.725491%,32.549021%,31.37255%);fill-opacity:1;" d="M 10.585938 9.511719 C 11.316406 9.511719 11.90625 10.105469 11.90625 10.835938 L 11.90625 22.742188 C 11.90625 23.472656 11.316406 24.066406 10.585938 24.066406 C 9.855469 24.066406 9.261719 23.472656 9.261719 22.742188 L 9.261719 10.835938 C 9.261719 10.105469 9.855469 9.511719 10.585938 9.511719 Z M 10.585938 9.511719 "/>
<path style=" stroke:none;fill-rule:nonzero;fill:rgb(93.725491%,32.549021%,31.37255%);fill-opacity:1;" d="M 21.167969 9.511719 C 21.898438 9.511719 22.492188 10.105469 22.492188 10.835938 L 22.492188 22.742188 C 22.492188 23.472656 21.898438 24.066406 21.167969 24.066406 C 20.4375 24.066406 19.84375 23.472656 19.84375 22.742188 L 19.84375 10.835938 C 19.84375 10.105469 20.4375 9.511719 21.167969 9.511719 Z M 21.167969 9.511719 "/>
<path style=" stroke:none;fill-rule:nonzero;fill:rgb(90.196079%,90.196079%,90.196079%);fill-opacity:0.588235;" d="M 6.613281 4.21875 C 5.882812 4.21875 5.292969 4.808594 5.292969 5.542969 L 5.292969 5.707031 C 5.292969 4.976562 5.882812 4.382812 6.613281 4.382812 L 25.136719 4.382812 C 25.871094 4.382812 26.460938 4.976562 26.460938 5.707031 L 26.460938 5.542969 C 26.460938 4.808594 25.871094 4.21875 25.136719 4.21875 Z M 6.613281 4.21875 "/>
<path style=" stroke:none;fill-rule:nonzero;fill:rgb(0%,0%,0%);fill-opacity:0.196078;" d="M 6.613281 6.867188 C 5.882812 6.867188 5.292969 6.273438 5.292969 5.542969 L 5.292969 5.375 C 5.292969 6.109375 5.882812 6.699219 6.613281 6.699219 L 25.136719 6.699219 C 25.871094 6.699219 26.460938 6.109375 26.460938 5.375 L 26.460938 5.542969 C 26.460938 6.273438 25.871094 6.867188 25.136719 6.867188 Z M 6.613281 6.867188 "/>
<path style=" stroke:none;fill-rule:nonzero;fill:rgb(12.941177%,12.941177%,12.941177%);fill-opacity:1;" d="M 6.617188 4.125 C 5.832031 4.125 5.199219 4.757812 5.199219 5.542969 C 5.199219 6.324219 5.832031 6.960938 6.617188 6.960938 L 25.136719 6.960938 C 25.921875 6.960938 26.554688 6.324219 26.554688 5.542969 C 26.554688 4.757812 25.921875 4.125 25.136719 4.125 Z M 6.617188 4.3125 L 25.136719 4.3125 C 25.820312 4.3125 26.367188 4.859375 26.367188 5.542969 C 26.367188 6.226562 25.820312 6.773438 25.136719 6.773438 L 6.617188 6.773438 C 5.933594 6.773438 5.386719 6.226562 5.386719 5.542969 C 5.386719 4.859375 5.933594 4.3125 6.617188 4.3125 Z M 6.617188 4.3125 "/>
<path style=" stroke:none;fill-rule:nonzero;fill:rgb(90.196079%,90.196079%,90.196079%);fill-opacity:0.588235;" d="M 7.277344 6.867188 C 6.542969 6.867188 5.953125 7.457031 5.953125 8.1875 L 5.953125 8.355469 C 5.953125 7.621094 6.542969 7.03125 7.277344 7.03125 L 24.476562 7.03125 C 25.210938 7.03125 25.800781 7.621094 25.800781 8.355469 L 25.800781 8.1875 C 25.800781 7.457031 25.210938 6.867188 24.476562 6.867188 Z M 7.277344 6.867188 "/>
<path style=" stroke:none;fill-rule:nonzero;fill:rgb(0%,0%,0%);fill-opacity:0.196078;" d="M 7.277344 28.035156 C 6.542969 28.035156 5.953125 27.445312 5.953125 26.710938 L 5.953125 26.546875 C 5.953125 27.277344 6.542969 27.867188 7.277344 27.867188 L 24.476562 27.867188 C 25.210938 27.867188 25.800781 27.277344 25.800781 26.546875 L 25.800781 26.710938 C 25.800781 27.445312 25.210938 28.035156 24.476562 28.035156 Z M 7.277344 28.035156 "/>
<path style="fill:none;stroke-width:3;stroke-linecap:round;stroke-linejoin:miter;stroke:rgb(12.941177%,12.941177%,12.941177%);stroke-opacity:1;stroke-miterlimit:4;" d="M 116.426382 -105.135492 L 391.587605 -105.135492 C 403.273989 -105.135492 412.773082 -95.698893 412.773082 -84.012509 L 412.773082 212.334192 C 412.773082 224.020576 403.273989 233.519669 391.587605 233.519669 L 116.426382 233.519669 C 104.739998 233.519669 95.240905 224.020576 95.240905 212.334192 L 95.240905 -84.012509 C 95.240905 -95.698893 104.739998 -105.135492 116.426382 -105.135492 Z M 116.426382 -105.135492 " transform="matrix(0.062506,0,0,0.062506,0,13.438783)"/>
<path style=" stroke:none;fill-rule:nonzero;fill:rgb(100%,100%,100%);fill-opacity:0.392157;" d="M 9.261719 22.769531 L 9.261719 22.988281 C 9.261719 23.722656 9.851562 24.3125 10.585938 24.3125 C 11.316406 24.3125 11.90625 23.722656 11.90625 22.988281 L 11.90625 22.769531 C 11.90625 23.503906 11.316406 24.09375 10.585938 24.09375 C 9.851562 24.09375 9.261719 23.503906 9.261719 22.769531 Z M 14.554688 22.769531 L 14.554688 22.988281 C 14.554688 23.722656 15.144531 24.3125 15.875 24.3125 C 16.609375 24.3125 17.199219 23.722656 17.199219 22.988281 L 17.199219 22.769531 C 17.199219 23.503906 16.609375 24.09375 15.875 24.09375 C 15.144531 24.09375 14.554688 23.503906 14.554688 22.769531 Z M 19.84375 22.769531 L 19.84375 22.988281 C 19.84375 23.722656 20.4375 24.3125 21.167969 24.3125 C 21.902344 24.3125 22.492188 23.722656 22.492188 22.988281 L 22.492188 22.769531 C 22.492188 23.503906 21.902344 24.09375 21.167969 24.09375 C 20.4375 24.09375 19.84375 23.503906 19.84375 22.769531 Z M 19.84375 22.769531 "/>
<path style=" stroke:none;fill-rule:nonzero;fill:rgb(12.941177%,12.941177%,12.941177%);fill-opacity:1;" d="M 15.875 9.417969 C 15.09375 9.417969 14.460938 10.050781 14.460938 10.835938 L 14.460938 22.742188 C 14.460938 23.523438 15.09375 24.160156 15.875 24.160156 C 16.660156 24.160156 17.292969 23.523438 17.292969 22.742188 L 17.292969 10.835938 C 17.292969 10.050781 16.660156 9.417969 15.875 9.417969 Z M 15.875 9.605469 C 16.558594 9.605469 17.105469 10.152344 17.105469 10.835938 L 17.105469 22.742188 C 17.105469 23.425781 16.558594 23.972656 15.875 23.972656 C 15.195312 23.972656 14.648438 23.425781 14.648438 22.742188 L 14.648438 10.835938 C 14.648438 10.152344 15.195312 9.605469 15.875 9.605469 Z M 15.875 9.605469 "/>
<path style=" stroke:none;fill-rule:nonzero;fill:rgb(12.941177%,12.941177%,12.941177%);fill-opacity:1;" d="M 10.585938 9.417969 C 9.800781 9.417969 9.167969 10.050781 9.167969 10.835938 L 9.167969 22.742188 C 9.167969 23.523438 9.800781 24.160156 10.585938 24.160156 C 11.367188 24.160156 12 23.523438 12 22.742188 L 12 10.835938 C 12 10.050781 11.367188 9.417969 10.585938 9.417969 Z M 10.585938 9.605469 C 11.265625 9.605469 11.8125 10.152344 11.8125 10.835938 L 11.8125 22.742188 C 11.8125 23.425781 11.265625 23.972656 10.585938 23.972656 C 9.902344 23.972656 9.355469 23.425781 9.355469 22.742188 L 9.355469 10.835938 C 9.355469 10.152344 9.902344 9.605469 10.585938 9.605469 Z M 10.585938 9.605469 "/>
<path style=" stroke:none;fill-rule:nonzero;fill:rgb(13.725491%,13.725491%,13.725491%);fill-opacity:0.235294;" d="M 10.585938 9.511719 C 9.851562 9.511719 9.261719 10.101562 9.261719 10.835938 L 9.261719 11.082031 C 9.261719 10.347656 9.851562 9.757812 10.585938 9.757812 C 11.316406 9.757812 11.90625 10.347656 11.90625 11.082031 L 11.90625 10.835938 C 11.90625 10.101562 11.316406 9.511719 10.585938 9.511719 Z M 15.875 9.511719 C 15.144531 9.511719 14.554688 10.101562 14.554688 10.835938 L 14.554688 11.082031 C 14.554688 10.347656 15.144531 9.757812 15.875 9.757812 C 16.609375 9.757812 17.199219 10.347656 17.199219 11.082031 L 17.199219 10.835938 C 17.199219 10.101562 16.609375 9.511719 15.875 9.511719 Z M 21.167969 9.511719 C 20.4375 9.511719 19.84375 10.101562 19.84375 10.835938 L 19.84375 11.082031 C 19.84375 10.347656 20.4375 9.757812 21.167969 9.757812 C 21.902344 9.757812 22.492188 10.347656 22.492188 11.082031 L 22.492188 10.835938 C 22.492188 10.101562 21.902344 9.511719 21.167969 9.511719 Z M 21.167969 9.511719 "/>
<path style=" stroke:none;fill-rule:nonzero;fill:rgb(12.941177%,12.941177%,12.941177%);fill-opacity:1;" d="M 21.167969 9.417969 C 20.386719 9.417969 19.75 10.050781 19.75 10.835938 L 19.75 22.742188 C 19.75 23.523438 20.386719 24.160156 21.167969 24.160156 C 21.953125 24.160156 22.585938 23.523438 22.585938 22.742188 L 22.585938 10.835938 C 22.585938 10.050781 21.953125 9.417969 21.167969 9.417969 Z M 21.167969 9.605469 C 21.851562 9.605469 22.398438 10.152344 22.398438 10.835938 L 22.398438 22.742188 C 22.398438 23.425781 21.851562 23.972656 21.167969 23.972656 C 20.484375 23.972656 19.9375 23.425781 19.9375 22.742188 L 19.9375 10.835938 C 19.9375 10.152344 20.484375 9.605469 21.167969 9.605469 Z M 21.167969 9.605469 "/>
</g>
</svg>

<svg xmlns="http://www.w3.org/2000/svg" width="32" height="32"><defs><linearGradient id="a" gradientUnits="userSpaceOnUse" x1="254" y1="233.5" x2="254" y2="254.667" gradientTransform="matrix(.0625 0 0 .0625 0 13.439)"><stop offset="0" stop-opacity=".275"/><stop offset="1" stop-opacity="0"/></linearGradient><radialGradient id="b" gradientUnits="userSpaceOnUse" cx="450.909" cy="189.579" fx="450.909" fy="189.579" r="21.167" gradientTransform="matrix(0 -.07813 -.14064 0 49.485 63.595)"><stop offset="0" stop-opacity=".314"/><stop offset=".222" stop-opacity=".275"/><stop offset="1" stop-opacity="0"/></radialGradient><radialGradient id="c" gradientUnits="userSpaceOnUse" cx="450.909" cy="189.579" fx="450.909" fy="189.579" r="21.167" gradientTransform="matrix(0 .07813 .14064 0 -17.732 -7.527)"><stop offset="0" stop-opacity=".314"/><stop offset=".222" stop-opacity=".275"/><stop offset="1" stop-opacity="0"/></radialGradient><radialGradient id="d" gradientUnits="userSpaceOnUse" cx="450.909" cy="189.579" fx="450.909" fy="189.579" r="21.167" gradientTransform="matrix(0 -.07813 .14064 0 -17.732 63.595)"><stop offset="0" stop-opacity=".314"/><stop offset=".222" stop-opacity=".275"/><stop offset="1" stop-opacity="0"/></radialGradient><radialGradient id="e" gradientUnits="userSpaceOnUse" cx="450.909" cy="189.579" fx="450.909" fy="189.579" r="21.167" gradientTransform="matrix(0 .07813 -.14064 0 49.485 -7.527)"><stop offset="0" stop-opacity=".314"/><stop offset=".222" stop-opacity=".275"/><stop offset="1" stop-opacity="0"/></radialGradient><linearGradient id="f" gradientUnits="userSpaceOnUse" x1="275.167" y1="233.5" x2="275.167" y2="-147.5" gradientTransform="matrix(.0625 0 0 .0625 0 13.439)"><stop offset="0" stop-color="#585858" stop-opacity="0"/><stop offset="1" stop-color="#fafafa" stop-opacity=".196"/></linearGradient><linearGradient id="g" gradientUnits="userSpaceOnUse" x1="254" y1="233.5" x2="254" y2="-147.5"><stop offset="0" stop-color="#585858" stop-opacity="0"/><stop offset="1" stop-color="#fafafa" stop-opacity=".196"/></linearGradient><linearGradient id="h" gradientUnits="userSpaceOnUse" x1="254" y1="-147.5" x2="254" y2="233.5" gradientTransform="matrix(.0625 0 0 .0625 0 13.439)"><stop offset="0" stop-color="#585858" stop-opacity="0"/><stop offset="1" stop-color="#fafafa" stop-opacity=".196"/></linearGradient><linearGradient id="i" gradientUnits="userSpaceOnUse" x1="169.333" y1="-147.5" x2="169.333" y2="233.5" gradientTransform="matrix(.0625 0 0 .0625 0 13.439)"><stop offset="0" stop-color="#585858" stop-opacity="0"/><stop offset="1" stop-color="#fafafa" stop-opacity=".196"/></linearGradient><linearGradient id="j" gradientUnits="userSpaceOnUse" x1="338.667" y1="-147.5" x2="338.667" y2="233.5" gradientTransform="matrix(.0625 0 0 .0625 0 13.439)"><stop offset="0" stop-color="#585858" stop-opacity="0"/><stop offset="1" stop-color="#fafafa" stop-opacity=".196"/></linearGradient></defs><path d="M8.602 28.035h14.55v1.32H8.602zm0 0" fill="url(#a)"/><path d="M23.152 28.035h2.649v-1.324h-2.649zm0 0" fill="url(#b)"/><path d="M8.602 28.035H5.953v1.32h2.649zm0 0" fill="url(#c)"/><path d="M8.602 28.035H5.953v-1.324h2.649zm0 0" fill="url(#d)"/><path d="M23.152 28.035h2.649v1.32h-2.649zm0 0" fill="url(#e)"/><path d="M7.277 6.867h17.2c.73 0 1.324.59 1.324 1.32v18.524c0 .73-.594 1.324-1.324 1.324h-17.2c-.73 0-1.324-.594-1.324-1.324V8.188c0-.731.594-1.32 1.324-1.32zm0 0" fill="#9ccc65"/><path d="M5.953 25.223h19.848v.164H5.953zm0 0" fill-opacity=".196"/><path d="M5.953 25.387h19.848v.168H5.953zm0 0" fill="#e6e6e6" fill-opacity=".588"/><path d="M5.953 25.305h19.848v.164H5.953zm0 0" fill="#212121" fill-opacity=".992"/><path d="M7.277 6.867h17.2c.73 0 1.324.59 1.324 1.32v18.524c0 .73-.594 1.324-1.324 1.324h-17.2c-.73 0-1.324-.594-1.324-1.324V8.188c0-.731.594-1.32 1.324-1.32zm0 0" fill="url(#f)"/><path d="M15.875 9.512c.73 0 1.324.593 1.324 1.324v11.906a1.322 1.322 0 1 1-2.645 0V10.836c0-.73.59-1.324 1.321-1.324zm0 0" fill="#d32f2f"/><path d="M15.875 2.895a1.325 1.325 0 0 1 0 2.648c-.73 0-1.32-.594-1.32-1.324 0-.73.59-1.324 1.32-1.324zm0 0" fill="#7cb342"/><path d="M15.875 2.895a1.325 1.325 0 0 1 0 2.648c-.73 0-1.32-.594-1.32-1.324 0-.73.59-1.324 1.32-1.324zm0 0" fill="#9ccc65"/><path d="M15.875 2.8c-.781 0-1.414.638-1.414 1.419a1.415 1.415 0 1 0 2.832 0c0-.781-.633-1.418-1.418-1.418zm0 .188c.684 0 1.23.547 1.23 1.23 0 .684-.546 1.231-1.23 1.231-.68 0-1.227-.547-1.227-1.23 0-.684.547-1.23 1.227-1.23zm0 0" fill="#212121"/><path d="M6.613 4.219h18.524a1.325 1.325 0 0 1 0 2.648H6.613c-.73 0-1.32-.594-1.32-1.324 0-.73.59-1.324 1.32-1.324zm0 0" fill="#9ccc65" stroke-width=".18752999999999997" stroke-linecap="round" stroke="#212121"/><path d="M105.802-147.506H402.15c11.686 0 21.186 9.499 21.186 21.185 0 11.686-9.5 21.186-21.186 21.186H105.802c-11.686 0-21.123-9.5-21.123-21.186s9.437-21.185 21.123-21.185zm0 0" transform="matrix(.0625 0 0 .0625 0 13.439)" fill="url(#g)" stroke-width="3" stroke-linecap="round" stroke="#212121"/><path d="M10.586 9.512c.73 0 1.32.593 1.32 1.324v11.906a1.322 1.322 0 1 1-2.644 0V10.836c0-.73.593-1.324 1.324-1.324zm0 0M21.168 9.512c.73 0 1.324.593 1.324 1.324v11.906a1.325 1.325 0 0 1-2.648 0V10.836c0-.73.593-1.324 1.324-1.324zm0 0" fill="#d32f2f"/><path d="M6.613 4.219c-.73 0-1.32.59-1.32 1.324v.164c0-.73.59-1.324 1.32-1.324h18.524c.734 0 1.324.594 1.324 1.324v-.164a1.32 1.32 0 0 0-1.324-1.324zm0 0" fill="#e6e6e6" fill-opacity=".588"/><path d="M6.613 6.867c-.73 0-1.32-.594-1.32-1.324v-.168c0 .734.59 1.324 1.32 1.324h18.524a1.32 1.32 0 0 0 1.324-1.324v.168c0 .73-.59 1.324-1.324 1.324zm0 0" fill-opacity=".196"/><path d="M6.617 4.125a1.418 1.418 0 1 0 0 2.836h18.52a1.418 1.418 0 1 0 0-2.836zm0 .188h18.52c.683 0 1.23.546 1.23 1.23 0 .684-.547 1.23-1.23 1.23H6.617c-.683 0-1.23-.546-1.23-1.23 0-.684.547-1.23 1.23-1.23zm0 0" fill="#333"/><path d="M7.277 6.867a1.32 1.32 0 0 0-1.324 1.32v.168c0-.734.59-1.324 1.324-1.324h17.2c.734 0 1.324.59 1.324 1.324v-.168c0-.73-.59-1.32-1.324-1.32zm0 0" fill="#e6e6e6" fill-opacity=".588"/><path d="M7.277 28.035a1.32 1.32 0 0 1-1.324-1.324v-.164c0 .73.59 1.32 1.324 1.32h17.2a1.32 1.32 0 0 0 1.324-1.32v.164a1.32 1.32 0 0 1-1.324 1.324zm0 0" fill-opacity=".196"/><path d="M7.277 6.867h17.2c.73 0 1.324.59 1.324 1.32v18.524c0 .73-.594 1.324-1.324 1.324h-17.2c-.73 0-1.324-.594-1.324-1.324V8.187c0-.73.594-1.32 1.324-1.32zm0 0" fill="none" stroke-width=".18752999999999997" stroke-linecap="round" stroke="#212121"/><path d="M15.875 9.512c.73 0 1.324.593 1.324 1.324v11.906a1.322 1.322 0 1 1-2.645 0V10.836c0-.73.59-1.324 1.321-1.324zm0 0" fill="url(#h)"/><path d="M15.875 9.418c-.781 0-1.414.633-1.414 1.418v11.906a1.417 1.417 0 1 0 2.832 0V10.836c0-.785-.633-1.418-1.418-1.418zm0 .187c.684 0 1.23.547 1.23 1.23v11.907c0 .684-.546 1.23-1.23 1.23-.68 0-1.227-.546-1.227-1.23V10.836c0-.684.547-1.23 1.227-1.23zm0 0" fill="#212121"/><path d="M10.586 9.512c.73 0 1.32.593 1.32 1.324v11.906a1.322 1.322 0 1 1-2.644 0V10.836c0-.73.593-1.324 1.324-1.324zm0 0" fill="url(#i)"/><path d="M10.586 9.418c-.785 0-1.418.633-1.418 1.418v11.906a1.417 1.417 0 0 0 2.832 0V10.836c0-.785-.633-1.418-1.414-1.418zm0 .187c.68 0 1.226.547 1.226 1.23v11.907c0 .684-.546 1.23-1.226 1.23-.684 0-1.23-.546-1.23-1.23V10.836c0-.684.546-1.23 1.23-1.23zm0 0" fill="#212121"/><path d="M21.168 9.512c.73 0 1.324.593 1.324 1.324v11.906a1.325 1.325 0 0 1-2.648 0V10.836c0-.73.593-1.324 1.324-1.324zm0 0" fill="url(#j)"/><path d="M21.168 9.418c-.781 0-1.418.633-1.418 1.418v11.906a1.418 1.418 0 1 0 2.836 0V10.836c0-.785-.633-1.418-1.418-1.418zm0 .187c.684 0 1.23.547 1.23 1.23v11.907c0 .684-.546 1.23-1.23 1.23-.684 0-1.23-.546-1.23-1.23V10.836c0-.684.546-1.23 1.23-1.23zm0 0" fill="#212121"/></svg>
